X:967
T:Island I Left, The
C:Joe Buchanan's Scottish Tome - Page 562.2
I:562 2
Z:Carl Allison
R:Waltz
L:1/4
M:3/4
K:D
D | F2 G | A2 A | G F E | D2 D | F2 G | A>B c | d3 | A2 =c |
B d2 | A2 G | F>E D | G2 B | A2 A | =C2 E | D3 | D2 D |
F2 G | A2 A | G F E | D2 D | F2 G | A>B c | d3 | A2 =c |
B d2 | A2 G | F>E D | G2 B | A2 A | =C2 E | D3 | D2 |]
